white/sphtx.svg

<svg height="32" width="32" xmlns="http://www.w3.org/2000/svg"><path d="M16 32C7.163 32 0 24.837 0 16S7.163 0 16 0s16 7.163 16 16-7.163 16-16 16zM6 12.391h8.417v-.356H6zm0-1.035h8.417V11H6zm3.55 10.64h.338v-8.893H9.55zm.98 0h.337v-8.893h-.337zm15.232-.728l.238-.252-3.798-4.012-.238.251zM16.519 11l-.238.252 3.798 4.012.238-.251zm8.55 11l.238-.252-3.798-4.013-.238.252zm-9.242-10.268l-.239.252 3.798 4.012.239-.252zm5.421 4.768l-.454.48-.238.252-4.275 4.516.238.252 4.275-4.516.239-.252.454-.48.238-.252L26 11.984l-.238-.252-4.275 4.516zm-.454-.984l-.238.252-.455.48-.238.252-4.275 4.516.239.252 4.274-4.516.239-.252.454-.48.238-.252 4.275-4.516L25.07 11z" fill="#fff" fill-rule="evenodd"/></svg>

<!-- Generated by IcoMoon.io -->
<svg version="1.1" xmlns="http://www.w3.org/2000/svg" width="32" height="32" viewBox="0 0 32 32">
<title>sphtx</title>
<path fill="#fff" d="M16 32c-8.837 0-16-7.163-16-16s7.163-16 16-16 16 7.163 16 16-7.163 16-16 16zM6 12.391h8.417v-0.356h-8.417zM6 11.356h8.417v-0.356h-8.417zM9.55 21.996h0.338v-8.893h-0.338zM10.53 21.996h0.337v-8.893h-0.337zM25.762 21.268l0.238-0.252-3.798-4.012-0.238 0.251zM16.519 11l-0.238 0.252 3.798 4.012 0.238-0.251zM25.069 22l0.238-0.252-3.798-4.013-0.238 0.252zM15.827 11.732l-0.239 0.252 3.798 4.012 0.239-0.252zM21.248 16.5l-4.967 5.248 0.238 0.252 9.481-10.016-0.238-0.252-4.275 4.516zM20.794 15.516l-0.238 0.252-0.455 0.48-0.238 0.252-4.275 4.516 0.239 0.252 9.48-10.016-0.237-0.252z"></path>
</svg>
